icons/glyphs/glyph-audacity.svg

<?xml version="1.0" encoding="UTF-8" standalone="no"?><svg height="16" viewBox="0 0 4.2333332 4.2333332" width="16" xmlns="http://www.w3.org/2000/svg"><sodipodi:namedview/><metadata><rdf:RDF><cc:Work><dc:format>image/svg+xml</dc:format><dc:type/><dc:title/></cc:Work></rdf:RDF></metadata><path d="m2.1161312-.0000001c-1.0233763-.00000008-1.85194148.83253308-1.85194165 1.8559097v1.3253258a.74332002.74332002 0 0 0 -.0017.024376.41283454.41283454 0 0 0 0 .00397.74332002.74332002 0 0 0  .0997679.3814989.74332002.74332002 0 0 0  .64338955.371862v.0005805h.1315118c.063009 0 .1139395-.050364.1139395-.1133725v-1.2595862c0-.063009-.050931-.1139394-.1139395-.1139394h-.1315124a.74332002.74332002 0 0 0 -.33048116.0782271v-.6989422c0-.801807.63915886-1.4415328 1.44096596-1.4415328.801807 0 1.4415328.6397258 1.4415328 1.4415328v.6989422a.74332002.74332002 0 0 0 -.3304813-.0782271h-.1315122c-.063009 0-.1133725.05093-.1133725.1139394v1.2595698c0 .063009.050364.1133727.1133725.1133727h.1315122v-.0005805a.74332002.74332002 0 0 0  .6433897-.3718622.74332002.74332002 0 0 0  .099201-.3565569.41283454.41283454 0 0 0  .00113-.02891.74332002.74332002 0 0 0 -.00171-.024376v-1.3253114c.0000127-1.02337662-.8296857-1.85590978-1.8530622-1.8559097zm.111672 2.0639485-.2726612 1.3480003-.1700589-.3951035h-.3633592v.2488529h.2006696l.4206124.9676352.2380824-1.1813425.1003345.3123415h.3928363v-.2465856h-.2120068z" fill="#d0d0d0"/></svg>

<?xml version="1.0" encoding="UTF-8" standalone="no"?>
<!-- Created with Inkscape (http://www.inkscape.org/) -->

<svg
   xmlns:dc="http://purl.org/dc/elements/1.1/"
   xmlns:cc="http://creativecommons.org/ns#"
   xmlns:rdf="http://www.w3.org/1999/02/22-rdf-syntax-ns#"
   xmlns:svg="http://www.w3.org/2000/svg"
   xmlns="http://www.w3.org/2000/svg"
   xmlns:sodipodi="http://sodipodi.sourceforge.net/DTD/sodipodi-0.dtd"
   xmlns:inkscape="http://www.inkscape.org/namespaces/inkscape"
   width="16"
   height="16"
   viewBox="0 0 4.2333332 4.2333332"
   version="1.1"
   id="svg8"
   inkscape:version="0.92+devel (f96dc7e339, 2017-07-28, custom)"
   sodipodi:docname="glyph-audacity.svg">
  <defs
     id="defs2" />
  <sodipodi:namedview
     id="base"
     pagecolor="#002466"
     bordercolor="#ffffff"
     borderopacity="0.38039216"
     inkscape:pageopacity="1"
     inkscape:pageshadow="2"
     inkscape:zoom="36.415999"
     inkscape:cx="10.094581"
     inkscape:cy="7.9162778"
     inkscape:document-units="px"
     inkscape:current-layer="svg8"
     inkscape:document-rotation="0"
     showgrid="false"
     inkscape:showpageshadow="false"
     borderlayer="true"
     inkscape:window-width="1920"
     inkscape:window-height="1051"
     inkscape:window-x="0"
     inkscape:window-y="0"
     inkscape:window-maximized="1"
     units="px" />
  <metadata
     id="metadata5">
    <rdf:RDF>
      <cc:Work
         rdf:about="">
        <dc:format>image/svg+xml</dc:format>
        <dc:type
           rdf:resource="http://purl.org/dc/dcmitype/StillImage" />
        <dc:title></dc:title>
      </cc:Work>
    </rdf:RDF>
  </metadata>
  <path
     inkscape:connector-curvature="0"
     id="path818"
     d="M 2.1161312,-9.9999997e-8 C 1.0927549,-1.8e-7 0.26418972,0.83253298 0.26418955,1.8559096 v 1.3253258 a 0.74332002,0.74332002 0 0 0 -0.0017,0.024376 0.41283454,0.41283454 0 0 0 0,0.00397 0.74332002,0.74332002 0 0 0 0.0997679,0.3814989 0.74332002,0.74332002 0 0 0 0.64338955,0.371862 v 5.805e-4 h 0.1315118 c 0.063009,0 0.1139395,-0.050364 0.1139395,-0.1133725 V 2.5905641 c 0,-0.063009 -0.050931,-0.1139394 -0.1139395,-0.1139394 H 1.0056464 A 0.74332002,0.74332002 0 0 0 0.67516524,2.5548518 V 1.8559096 c 0,-0.801807 0.63915886,-1.4415328 1.44096596,-1.4415328 0.801807,0 1.4415328,0.6397258 1.4415328,1.4415328 V 2.5548518 A 0.74332002,0.74332002 0 0 0 3.2271827,2.4766247 H 3.0956705 c -0.063009,0 -0.1133725,0.05093 -0.1133725,0.1139394 v 1.2595698 c 0,0.063009 0.050364,0.1133727 0.1133725,0.1133727 H 3.2271827 V 3.9629261 A 0.74332002,0.74332002 0 0 0 3.8705724,3.5910639 0.74332002,0.74332002 0 0 0 3.9697734,3.234507 0.41283454,0.41283454 0 0 0 3.9709034,3.205597 0.74332002,0.74332002 0 0 0 3.9691934,3.181221 V 1.8559096 C 3.9692061,0.83253298 3.1395077,-1.8e-7 2.1161312,-9.9999997e-8 Z M 2.2278032,2.0639484 1.955142,3.4119487 1.7850831,3.0168452 H 1.4217239 V 3.2656981 H 1.6223935 L 2.0430059,4.2333333 2.2810883,3.0519908 2.3814228,3.3643323 H 2.7742591 V 3.1177467 H 2.5622523 Z"
     style="color:#000000;font-style:normal;font-variant:normal;font-weight:normal;font-stretch:normal;font-size:medium;line-height:normal;font-family:sans-serif;font-variant-ligatures:normal;font-variant-position:normal;font-variant-caps:normal;font-variant-numeric:normal;font-variant-alternates:normal;font-variant-east-asian:normal;font-feature-settings:normal;font-variation-settings:normal;text-indent:0;text-align:start;text-decoration:none;text-decoration-line:none;text-decoration-style:solid;text-decoration-color:#000000;letter-spacing:normal;word-spacing:normal;text-transform:none;writing-mode:lr-tb;direction:ltr;text-orientation:mixed;dominant-baseline:auto;baseline-shift:baseline;text-anchor:start;white-space:normal;shape-padding:0;clip-rule:nonzero;display:inline;overflow:visible;visibility:visible;opacity:1;isolation:auto;mix-blend-mode:normal;color-interpolation:sRGB;color-interpolation-filters:linearRGB;solid-color:#000000;solid-opacity:1;vector-effect:none;fill:#d0d0d0;fill-opacity:1;fill-rule:nonzero;stroke:none;stroke-width:0.44090044;stroke-linecap:butt;stroke-linejoin:round;stroke-miterlimit:4;stroke-dasharray:none;stroke-dashoffset:0;stroke-opacity:1;color-rendering:auto;image-rendering:auto;shape-rendering:auto;text-rendering:auto;enable-background:accumulate"
     inkscape:label="#" />
</svg>
